X:8
T:Drops of Brandy
Z: id:dc-slipjig-7
M:9/8
L:1/8
K:G Major
ded BGB BGB|ded BGB cBA|ded BGB BGB|cBc A2B cBA:|!
GBd gdB gdB|GBd gdB cBA|GBd gdB gdB|cBc A2B cBA|!
GBd gdB gdB|GBd gdB cBA|GBd gba gdB|cBc A2B cBA|]!

